X: 5623
T: Buttered Peas
R: polka
M: 2/4
K: Dmajor
|:"D" FA AF|"G" GB BG|"D" FA AF|"A" GE E2|
"D" FA AF|"G" GB BG|"D" FA "A" E/F/G/E/|"D" FD D2:|
|:"D" DF Ad|"G" d/c/B/c/ dB|"D" AF AF|"A" GE E2|
"D" DF Ad|"G" d/c/B/c/ dB|"D" AF "A" E/F/G/E/|"D" FD D2:|

